X:1
T:Title
%%score { ( 1 4 ) | ( 2 3 ) }
L:1/8
Q:1/4=100
M:4/4
K:G
V:1 treble nm="Grand Piano"
V:4 treble 
V:2 bass 
V:3 bass 
V:1
 G3 G G2 D2 | G2 [DFA]2 [DGB]2 [B,DG]2 | A3 A A2 D2 | A2 B2 d2 c2 | [DB]3 [DB] [DB]2 [B,DG]2 | %5
w: Robert~Lowry * * *|||||
 B2 c2 d2 B2 | A3 A B2 [B,DG]2 | [G,CE]2 [^CA]2 z2 =C2 | G3 [DF] [CE]2 [B,D]2 | %9
w: ||||
 [B,G]3 [DF] [DF]2 [CE]2 | [Ec]3 [EB] [EA]2 [EG]2 | [DF]2 [FA]2 [Fd]2 [Ac]2 | B3 A G2 D2 | %13
w: ||||
 c3 B A2 D2 | d3 c B2 [CEA]2 | [B,DG]2 .[A,DF]2 [B,DG]4 |] %16
w: |||
V:2
 [G,B,D]3 [G,B,D] [G,B,D]2 [F,A,]2 | [E,B,E]2 D,2 G,2 G,,2 | [D,F,D]3 [D,F,D] [D,F,D]2 [D,F,]2 | %3
 z4 B,2 z2 | G,3 G, G,2 G,,2 | [G,D]2 [G,A,D]2 [G,B,D]2 [G,D]2 | [D,F,D]3 [D,F,D] [G,D]2 G,,2 | %7
 C,2 [A,,G,]2 [D,F,]4 | [E,G,B,]3 [B,,G,] [C,G,]2 [G,,G,]2 | [E,G,]3 [B,,G,] [C,G,]2 [C,G,]2 | %10
 [A,,A,]3 [B,,^G,] [C,A,]2 [^C,A,]2 | [D,A,]2 [D,D]2 [D,A,]2 [F,D]2 | %12
 [G,DG]3 [G,CD][K:bass] [G,B,D]2 [G,B,]2 | [D,A,D]3 [D,G,D] [D,F,D]2 [D,F,]2 | %14
 [F,A,D]3 [F,A,D] [G,D]2 C,2 | D,2 z C G,,4 |] %16
V:3
 x8 | x8 | x8 | [D,F,D]2 [D,G,D]2 [D,D]2- [D,A,D]2 | x8 | x8 | x8 | x8 | x8 | x8 | x8 | x8 | %12
 x4[K:bass] x4 | x8 | x8 | z2 D,2 z4 |] %16
V:4
 x8 | x8 | x8 | x8 | x8 | x8 | x8 | z4 D4 | x8 | x8 | x8 | x8 | x8 | x8 | x8 | x8 |] %16

